public/svgs/regular/turntable.svg

<svg xmlns="http://www.w3.org/2000/svg" viewBox="0 0 576 512"><!-- Font Awesome Pro 6.0.0-alpha2 by @fontawesome - https://fontawesome.com License - https://fontawesome.com/license (Commercial License) --><path d="M512 32H64C28.625 32 0 60.625 0 96V416C0 451.375 28.625 480 64 480H512C547.375 480 576 451.375 576 416V96C576 60.625 547.375 32 512 32ZM528 416C528 424.822 520.822 432 512 432H64C55.178 432 48 424.822 48 416V96C48 87.178 55.178 80 64 80H512C520.822 80 528 87.178 528 96V416ZM224 112C144.463 112 80 176.463 80 256S144.463 400 224 400S368 335.537 368 256S303.537 112 224 112ZM224 288C206.375 288 192 273.625 192 256S206.375 224 224 224S256 238.375 256 256S241.625 288 224 288ZM472 112C458.75 112 448 122.75 448 136V279.844C448 281.172 447.672 282.484 447.031 283.672L402.938 364.516C396.578 376.141 400.875 390.719 412.516 397.062C416.156 399.062 420.094 400 423.984 400C432.484 400 440.719 395.484 445.062 387.484L489.156 306.672C493.625 298.469 496 289.203 496 279.844V136C496 122.75 485.25 112 472 112Z"/></svg>

<svg xmlns="http://www.w3.org/2000/svg" viewBox="0 0 576 512"><!--! Font Awesome Pro 6.5.1 by @fontawesome - https://fontawesome.com License - https://fontawesome.com/license (Commercial License) Copyright 2023 Fonticons, Inc. --><path d="M512 80c8.8 0 16 7.2 16 16V416c0 8.8-7.2 16-16 16H64c-8.8 0-16-7.2-16-16V96c0-8.8 7.2-16 16-16H512zM64 32C28.7 32 0 60.7 0 96V416c0 35.3 28.7 64 64 64H512c35.3 0 64-28.7 64-64V96c0-35.3-28.7-64-64-64H64zM224 400a144 144 0 1 0 0-288 144 144 0 1 0 0 288zm0-176a32 32 0 1 1 0 64 32 32 0 1 1 0-64zm272-88c0-13.3-10.7-24-24-24s-24 10.7-24 24V271.7c0 6.7-1.7 13.3-4.9 19.2l-40.2 73.7c-6.3 11.6-2.1 26.2 9.6 32.6s26.2 2.1 32.6-9.6l40.2-73.7c7-12.9 10.7-27.4 10.7-42.1V136z"/></svg>
